korla/apps/scalable/PosteRazor.svg

<svg width="64" height="64" xmlns="http://www.w3.org/2000/svg">
 <path d="m11.300781 17c-1.2742 0-2.300781 1.01887-2.300781 2.285156v4.714844h-3.125c-1.03875 0-1.875 0.859305-1.875 1.927734v14.144532c0 1.068429 0.83625 1.927734 1.875 1.927734h3.125v4.714844c0 1.266286 1.026581 2.285156 2.300781 2.285156h41.398438c1.2742 0 2.300781-1.01887 2.300781-2.285156v-4.714844h3.125c1.03875 0 1.875-0.859305 1.875-1.927734v-14.144532c0-1.068429-0.83625-1.927734-1.875-1.927734h-3.125v-4.714844c0-1.266286-1.026581-2.285156-2.300781-2.285156z" opacity=".2"/>
 <g fill="#afafb1">
  <rect x="9" y="16" width="46" height="32" rx="2.3" ry="2.286"/>
  <path d="m5.875 23c-1.03875 0-1.875 0.860143-1.875 1.928572v14.142856c0 1.068429 0.83625 1.928572 1.875 1.928572h3.125v-18h-2.5z"/>
  <path d="m58.125 41c1.03875 0 1.875-0.860143 1.875-1.928572v-14.142856c0-1.068429-0.83625-1.928572-1.875-1.928572h-3.125v18h2.5z"/>
 </g>
 <path d="m32 25a8 8 0 0 0-7.410156 5h-4.433594l-0.121094-0.199219-1.267578-2.101562a1.4645125 1.4001092 0 0 0-1.345703-0.697266 1.4645125 1.4001092 0 0 0-1.189453 0.697266l-1.267578 2.101562-0.121094 0.199219h-3.84375v-1c0-1.108-0.892-2-2-2h-1c-1.108 0-2 0.892-2 2v8c0 1.108 0.892 2 2 2h1c1.108 0 2-0.892 2-2v-1h3.84375l0.121094 0.199219 1.267578 2.101562a1.4645125 1.4001092 0 0 0 1.189453 0.697266 1.4645125 1.4001092 0 0 0 1.345703-0.697266l1.267578-2.101562 0.121094-0.199219h4.431641a8 8 0 0 0 7.412109 5 8 8 0 0 0 7.410156-5h4.433594l0.121094 0.199219 1.267578 2.101562a1.4645125 1.4001092 0 0 0 1.189453 0.697266 1.4645125 1.4001092 0 0 0 1.345703-0.697266l1.267578-2.101562 0.121094-0.199219h3.84375v1c0 1.108 0.892 2 2 2h1c1.108 0 2-0.892 2-2v-8c0-1.108-0.892-2-2-2h-1c-1.108 0-2 0.892-2 2v1h-3.84375l-0.121094-0.199219-1.267578-2.101562a1.4645125 1.4001092 0 0 0-1.345703-0.697266 1.4645125 1.4001092 0 0 0-1.189453 0.697266l-1.267578 2.101562-0.121094 0.199219h-4.431641a8 8 0 0 0-7.412109-5z" opacity=".1"/>
 <path d="m32 24a8 8 0 0 0-7.410156 5h-4.433594l-0.121094-0.199219-1.267578-2.101562a1.4645125 1.4001092 0 0 0-1.345703-0.697266 1.4645125 1.4001092 0 0 0-1.189453 0.697266l-1.267578 2.101562-0.121094 0.199219h-3.84375v-1c0-1.108-0.892-2-2-2h-1c-1.108 0-2 0.892-2 2v8c0 1.108 0.892 2 2 2h1c1.108 0 2-0.892 2-2v-1h3.84375l0.121094 0.199219 1.267578 2.101562a1.4645125 1.4001092 0 0 0 1.189453 0.697266 1.4645125 1.4001092 0 0 0 1.345703-0.697266l1.267578-2.101562 0.121094-0.199219h4.431641a8 8 0 0 0 7.412109 5 8 8 0 0 0 7.410156-5h4.433594l0.121094 0.199219 1.267578 2.101562a1.4645125 1.4001092 0 0 0 1.189453 0.697266 1.4645125 1.4001092 0 0 0 1.345703-0.697266l1.267578-2.101562 0.121094-0.199219h3.84375v1c0 1.108 0.892 2 2 2h1c1.108 0 2-0.892 2-2v-8c0-1.108-0.892-2-2-2h-1c-1.108 0-2 0.892-2 2v1h-3.84375l-0.121094-0.199219-1.267578-2.101562a1.4645125 1.4001092 0 0 0-1.345703-0.697266 1.4645125 1.4001092 0 0 0-1.189453 0.697266l-1.267578 2.101562-0.121094 0.199219h-4.431641a8 8 0 0 0-7.412109-5z" fill="#3f3f3f"/>
 <path d="m11.300781 16c-1.2742 0-2.300781 1.01887-2.300781 2.285156v.714844h46v-.714844c0-1.266286-1.026581-2.285156-2.300781-2.285156zm-2.300781 29v.714844c0 1.266286 1.026581 2.285156 2.300781 2.285156h41.398438c1.2742 0 2.300781-1.01887 2.300781-2.285156v-.714844z" opacity=".2"/>
 <path d="m5.875 23c-1.03875 0-1.875 0.859305-1.875 1.927734v1c0-1.068429 0.83625-1.927734 1.875-1.927734h3.125v-1h-2.5zm49.125 0v1h3.125c1.03875 0 1.875 0.859305 1.875 1.927734v-1c0-1.068429-0.83625-1.927734-1.875-1.927734h-1.25z" fill="#fff" opacity=".2"/>
</svg>

<svg xmlns="http://www.w3.org/2000/svg" width="64" height="64" version="1">
 <path style="opacity:0.2" d="M 11.300781,17 C 10.026581,17 9,18.01887 9,19.285156 V 24 H 7.125 6.5 5.875 C 4.83625,24 4,24.859305 4,25.927734 V 40.072266 C 4,41.140695 4.83625,42 5.875,42 H 6.5 7.125 9 v 4.714844 C 9,47.98113 10.026581,49 11.300781,49 H 52.699219 C 53.973419,49 55,47.98113 55,46.714844 V 42 h 1.875 0.625 0.625 C 59.16375,42 60,41.140695 60,40.072266 V 25.927734 C 60,24.859305 59.16375,24 58.125,24 H 57.5 56.875 55 V 19.285156 C 55,18.01887 53.973419,17 52.699219,17 Z"/>
 <rect style="fill:#afafb1" width="46" height="32" x="9" y="16" rx="2.3" ry="2.286"/>
 <path style="fill:#afafb1" d="M 5.875,23 C 4.83625,23 4,23.860143 4,24.928572 V 39.071428 C 4,40.139857 4.83625,41 5.875,41 H 6.5 7.125 9 V 39.071428 24.928572 23 H 7.125 6.5 Z"/>
 <path style="fill:#afafb1" d="M 58.125,41 C 59.16375,41 60,40.139857 60,39.071428 V 24.928572 C 60,23.860143 59.16375,23 58.125,23 H 57.5 56.875 55 V 24.928572 39.071428 41 h 1.875 0.625 z"/>
 <path style="opacity:0.1" d="m 32,25 a 8,8 0 0 0 -7.410156,5 H 20.15625 l -0.121094,-0.199219 -1.267578,-2.101562 a 1.4645125,1.4001092 0 0 0 -1.345703,-0.697266 1.4645125,1.4001092 0 0 0 -1.189453,0.697266 L 14.964844,29.800781 14.84375,30 H 11 V 29 C 11,27.892 10.108,27 9,27 H 8 C 6.892,27 6,27.892 6,29 V 31.214844 34.785156 37 c 0,1.108 0.892,2 2,2 h 1 c 1.108,0 2,-0.892 2,-2 v -1 h 3.84375 l 0.121094,0.199219 1.267578,2.101562 a 1.4645125,1.4001092 0 0 0 1.189453,0.697266 1.4645125,1.4001092 0 0 0 1.345703,-0.697266 L 20.035156,36.199219 20.15625,36 h 4.431641 A 8,8 0 0 0 32,41 8,8 0 0 0 39.410156,36 h 4.433594 l 0.121094,0.199219 1.267578,2.101562 a 1.4645125,1.4001092 0 0 0 1.189453,0.697266 1.4645125,1.4001092 0 0 0 1.345703,-0.697266 L 49.035156,36.199219 49.15625,36 H 53 v 1 c 0,1.108 0.892,2 2,2 h 1 c 1.108,0 2,-0.892 2,-2 V 34.785156 31.214844 29 c 0,-1.108 -0.892,-2 -2,-2 h -1 c -1.108,0 -2,0.892 -2,2 v 1 h -3.84375 l -0.121094,-0.199219 -1.267578,-2.101562 a 1.4645125,1.4001092 0 0 0 -1.345703,-0.697266 1.4645125,1.4001092 0 0 0 -1.189453,0.697266 L 43.964844,29.800781 43.84375,30 H 39.412109 A 8,8 0 0 0 32,25 Z"/>
 <path style="fill:#3f3f3f" d="M 32 24 A 8 8 0 0 0 24.589844 29 L 20.15625 29 L 20.035156 28.800781 L 18.767578 26.699219 A 1.4645125 1.4001092 0 0 0 17.421875 26.001953 A 1.4645125 1.4001092 0 0 0 16.232422 26.699219 L 14.964844 28.800781 L 14.84375 29 L 11 29 L 11 28 C 11 26.892 10.108 26 9 26 L 8 26 C 6.892 26 6 26.892 6 28 L 6 30.214844 L 6 33.785156 L 6 36 C 6 37.108 6.892 38 8 38 L 9 38 C 10.108 38 11 37.108 11 36 L 11 35 L 14.84375 35 L 14.964844 35.199219 L 16.232422 37.300781 A 1.4645125 1.4001092 0 0 0 17.421875 37.998047 A 1.4645125 1.4001092 0 0 0 18.767578 37.300781 L 20.035156 35.199219 L 20.15625 35 L 24.587891 35 A 8 8 0 0 0 32 40 A 8 8 0 0 0 39.410156 35 L 43.84375 35 L 43.964844 35.199219 L 45.232422 37.300781 A 1.4645125 1.4001092 0 0 0 46.421875 37.998047 A 1.4645125 1.4001092 0 0 0 47.767578 37.300781 L 49.035156 35.199219 L 49.15625 35 L 53 35 L 53 36 C 53 37.108 53.892 38 55 38 L 56 38 C 57.108 38 58 37.108 58 36 L 58 33.785156 L 58 30.214844 L 58 28 C 58 26.892 57.108 26 56 26 L 55 26 C 53.892 26 53 26.892 53 28 L 53 29 L 49.15625 29 L 49.035156 28.800781 L 47.767578 26.699219 A 1.4645125 1.4001092 0 0 0 46.421875 26.001953 A 1.4645125 1.4001092 0 0 0 45.232422 26.699219 L 43.964844 28.800781 L 43.84375 29 L 39.412109 29 A 8 8 0 0 0 32 24 z"/>
 <path style="opacity:0.2" d="M 11.300781 16 C 10.026581 16 9 17.01887 9 18.285156 L 9 19 L 55 19 L 55 18.285156 C 55 17.01887 53.973419 16 52.699219 16 L 11.300781 16 z M 9 45 L 9 45.714844 C 9 46.98113 10.026581 48 11.300781 48 L 52.699219 48 C 53.973419 48 55 46.98113 55 45.714844 L 55 45 L 9 45 z"/>
 <path style="opacity:0.2;fill:#ffffff" d="M 5.875 23 C 4.83625 23 4 23.859305 4 24.927734 L 4 25.927734 C 4 24.859305 4.83625 24 5.875 24 L 6.5 24 L 7.125 24 L 9 24 L 9 23 L 7.125 23 L 6.5 23 L 5.875 23 z M 55 23 L 55 24 L 56.875 24 L 57.5 24 L 58.125 24 C 59.16375 24 60 24.859305 60 25.927734 L 60 24.927734 C 60 23.859305 59.16375 23 58.125 23 L 57.5 23 L 56.875 23 L 55 23 z"/>
</svg>
